X: 32809
T: Pop Goes The Weasel
R: jig
M: 6/8
K: Gmajor
G2B A2(c BdB) G3|G2B (A2c) B3 G3|
G2B A2(c BdB) G3|e3 (A2c) B3, G3||
g2f e2(g faf) d3|(g2f e2f) e3g3|
g2f e2(g faf) d3|e3 (A2c) B3, G3||

